craft/templates/elements/components/footer/waves-pattern.svg

<?xml version="1.0" encoding="UTF-8" standalone="no"?>
<svg width="80px" height="6px" viewBox="0 0 80 6" version="1.1" xmlns="http://www.w3.org/2000/svg" xmlns:xlink="http://www.w3.org/1999/xlink">
    <!-- Generator: Sketch 39.1 (31720) - http://www.bohemiancoding.com/sketch -->
    <title>waves</title>
    <desc>Created with Sketch.</desc>
    <defs></defs>
    <g id="Symbols" stroke="none" stroke-width="1" fill="none" fill-rule="evenodd" stroke-linecap="square">
        <g id="waves" stroke="#CCCCCC" stroke-width="0.5">
            <path d="M1.97215226e-31,5.72727273 C5,5.72727273 5,0.272727273 10,0.272727273 C15,0.272727273 15,5.72727273 20,5.72727273" id="Line"></path>
            <path d="M20,5.72727273 C25,5.72727273 25,0.272727273 30,0.272727273 C35,0.272727273 35,5.72727273 40,5.72727273" id="Line-Copy"></path>
            <path d="M40,5.72727273 C45,5.72727273 45,0.272727273 50,0.272727273 C55,0.272727273 55,5.72727273 60,5.72727273" id="Line-Copy-3"></path>
            <path d="M60,5.72727273 C65,5.72727273 65,0.272727273 70,0.272727273 C75,0.272727273 75,5.72727273 80,5.72727273" id="Line-Copy-2"></path>
        </g>
    </g>
</svg>

<svg width="80" height="6" viewBox="0 0 80 6" xmlns="http://www.w3.org/2000/svg"><title>waves</title><g stroke="#CCC" stroke-width=".5" fill="none" fill-rule="evenodd" stroke-linecap="square"><path d="M0 5.727c5 0 5-5.454 10-5.454s5 5.454 10 5.454M20 5.727c5 0 5-5.454 10-5.454s5 5.454 10 5.454M40 5.727c5 0 5-5.454 10-5.454s5 5.454 10 5.454M60 5.727c5 0 5-5.454 10-5.454s5 5.454 10 5.454"/></g></svg>
